material/.icons/material/bell-alert.svg

<svg xmlns="http://www.w3.org/2000/svg" viewBox="0 0 24 24"><path d="M23 6v7h-2V6m0 9h2v2h-2M12 2a2 2 0 00-2 2 2 2 0 000 .29C7.12 5.14 5 7.82 5 11v6l-2 2v1h18v-1l-2-2v-6c0-3.18-2.12-5.86-5-6.71A2 2 0 0014 4a2 2 0 00-2-2m-2 19a2 2 0 002 2 2 2 0 002-2z"/></svg>

<?xml version="1.0" encoding="UTF-8"?><!DOCTYPE svg PUBLIC "-//W3C//DTD SVG 1.1//EN" "http://www.w3.org/Graphics/SVG/1.1/DTD/svg11.dtd"><svg xmlns="http://www.w3.org/2000/svg" xmlns:xlink="http://www.w3.org/1999/xlink" version="1.1" id="mdi-bell-alert" width="24" height="24" viewBox="0 0 24 24"><path d="M23 6V13H21V6M21 15H23V17H21M12 2A2 2 0 0 0 10 4A2 2 0 0 0 10 4.29C7.12 5.14 5 7.82 5 11V17L3 19V20H21V19L19 17V11C19 7.82 16.88 5.14 14 4.29A2 2 0 0 0 14 4A2 2 0 0 0 12 2M10 21A2 2 0 0 0 12 23A2 2 0 0 0 14 21Z" /></svg>
